src/4-icons/text.svg

<svg width="260" height="260" viewBox="0 0 260 260" fill="none" xmlns="http://www.w3.org/2000/svg">
<g opacity="0.9">
<path d="M32 69C35.866 69 39 65.866 39 62C39 58.134 35.866 55 32 55C28.134 55 25 58.134 25 62C25 65.866 28.134 69 32 69Z" fill="black"/>
<path d="M63 62C63 65.866 59.866 69 56 69C52.134 69 49 65.866 49 62C49 58.134 52.134 55 56 55C59.866 55 63 58.134 63 62Z" fill="black"/>
<path d="M80 69C83.866 69 87 65.866 87 62C87 58.134 83.866 55 80 55C76.134 55 73 58.134 73 62C73 65.866 76.134 69 80 69Z" fill="black"/>
<path d="M62 113C58.134 113 55 116.134 55 120C55 123.866 58.134 127 62 127H198C201.866 127 205 123.866 205 120C205 116.134 201.866 113 198 113H62Z" fill="black"/>
<path d="M55 152C55 148.134 58.134 145 62 145H158C161.866 145 165 148.134 165 152C165 155.866 161.866 159 158 159H62C58.134 159 55 155.866 55 152Z" fill="black"/>
<path d="M62 177C58.134 177 55 180.134 55 184C55 187.866 58.134 191 62 191H198C201.866 191 205 187.866 205 184C205 180.134 201.866 177 198 177H62Z" fill="black"/>
<path fill-rule="evenodd" clip-rule="evenodd" d="M0 45C0 39.4771 4.47715 35 10 35H250C255.523 35 260 39.4772 260 45V215C260 220.523 255.523 225 250 225H10C4.47716 225 0 220.523 0 215V45ZM246 54V75H14V54C14 51.2386 16.2386 49 19 49H241C243.761 49 246 51.2386 246 54ZM14 206V89H246V206C246 208.761 243.761 211 241 211H19C16.2386 211 14 208.761 14 206Z" fill="black"/>
</g>
</svg>

<svg width="260" height="260" viewBox="0 0 260 260" fill="none" xmlns="http://www.w3.org/2000/svg"><g opacity=".9" fill="#000"><path d="M32 69a7 7 0 1 0 0-14 7 7 0 0 0 0 14Zm31-7a7 7 0 1 1-14 0 7 7 0 0 1 14 0Zm17 7a7 7 0 1 0 0-14 7 7 0 0 0 0 14Zm-18 44a7 7 0 1 0 0 14h136a7 7 0 1 0 0-14H62Zm-7 39a7 7 0 0 1 7-7h96a7 7 0 1 1 0 14H62a7 7 0 0 1-7-7Zm7 25a7 7 0 1 0 0 14h136a7 7 0 1 0 0-14H62Z"/><path fill-rule="evenodd" clip-rule="evenodd" d="M0 45c0-5.523 4.477-10 10-10h240c5.523 0 10 4.477 10 10v170c0 5.523-4.477 10-10 10H10c-5.523 0-10-4.477-10-10V45Zm246 9v21H14V54a5 5 0 0 1 5-5h222a5 5 0 0 1 5 5ZM14 206V89h232v117a5 5 0 0 1-5 5H19a5 5 0 0 1-5-5Z"/></g></svg>
